**kern	**kern	**kern	**kern	**kern	**kern	**kern	**kern	**kern	**kern	**kern	**kern	**kern	**kern	**kern	**kern	**kern	**kern
*ITrd7c12	*	*	*	*	*	*ITrd-1c-2	*ITrd-1c-2	*ITrd6c10	*ITrd6c10	*	*	*ITrd2c3	*ITrd2c3	*	*	*	*
*	*Icello	*Iviola	*Ivioln	*Ivioln	*Itimpa	*	*	*	*	*Ifagot	*Ifagot	*	*	*Ioboe	*Ioboe	*Iflt	*Iflt
*Icbass	*I"Violoncello	*I"Viola	*I#2	*I#1	*I"Timpani	*Itromp	*Itromp	*Icor	*Icor	*I#2	*I#1	*Iclars	*Iclars	*I#2	*I#1	*I#2	*I#1
*I"Basso	*	*	*I"Violino II	*I"Violino I	*	*I#2	*I#1	*I#2	*I#1	*I"Fagotto 2	*I"Fagotto 1	*I#2	*I#1	*I"Oboe 2	*I"Oboe 1	*I"Flauto 2	*I"Flauto 1
*	*	*	*	*	*	*I"Tromba 2	*I"Tromba 1	*I"Corno 2	*I"Corno 1	*	*	*I"Clarinet 2	*I"Clarinet 1	*	*	*	*
*>[A,B,B,C,C,D,D,E]	*>[A,B,B,C,C,D,D,E]	*>[A,B,B,C,C,D,D,E]	*>[A,B,B,C,C,D,D,E]	*>[A,B,B,C,C,D,D,E]	*>[A,B,B,C,C,D,D,E]	*>[A,B,B,C,C,D,D,E]	*>[A,B,B,C,C,D,D,E]	*>[A,B,B,C,C,D,D,E]	*>[A,B,B,C,C,D,D,E]	*>[A,B,B,C,C,D,D,E]	*>[A,B,B,C,C,D,D,E]	*>[A,B,B,C,C,D,D,E]	*>[A,B,B,C,C,D,D,E]	*>[A,B,B,C,C,D,D,E]	*>[A,B,B,C,C,D,D,E]	*>[A,B,B,C,C,D,D,E]	*>[A,B,B,C,C,D,D,E]
*>norep[A,B,C,D,E]	*>norep[A,B,C,D,E]	*>norep[A,B,C,D,E]	*>norep[A,B,C,D,E]	*>norep[A,B,C,D,E]	*>norep[A,B,C,D,E]	*>norep[A,B,C,D,E]	*>norep[A,B,C,D,E]	*>norep[A,B,C,D,E]	*>norep[A,B,C,D,E]	*>norep[A,B,C,D,E]	*>norep[A,B,C,D,E]	*>norep[A,B,C,D,E]	*>norep[A,B,C,D,E]	*>norep[A,B,C,D,E]	*>norep[A,B,C,D,E]	*>norep[A,B,C,D,E]	*>norep[A,B,C,D,E]
=1	=1	=1	=1	=1	=1	=1	=1	=1	=1	=1	=1	=1	=1	=1	=1	=1	=1
*>A	*>A	*>A	*>A	*>A	*>A	*>A	*>A	*>A	*>A	*>A	*>A	*>A	*>A	*>A	*>A	*>A	*>A
*staff:8	*staff:8	*staff:9	*staff:10	*staff:11	*staff:12	*staff:13	*staff:13	*staff:14	*staff:14	*staff:15	*staff:15	*staff:16	*staff:16	*staff:17	*staff:17	*staff:18	*staff:18
*clefF4	*clefF4	*clefC3	*clefG2	*clefG2	*clefF4	*clefG2	*clefG2	*clefG2	*clefG2	*clefF4	*clefF4	*clefG2	*clefG2	*clefG2	*clefG2	*clefG2	*clefG2
*k[f#c#]	*k[f#c#]	*k[f#c#]	*k[f#c#]	*k[f#c#]	*M3/4	*M3/4	*M3/4	*M3/4	*M3/4	*k[f#c#]	*k[f#c#]	*k[f#c#]	*k[f#c#]	*k[f#c#]	*k[f#c#]	*k[f#c#]	*k[f#c#]
*M3/4	*M3/4	*M3/4	*M3/4	*M3/4	*	*	*	*	*	*M3/4	*M3/4	*M3/4	*M3/4	*M3/4	*M3/4	*M3/4	*M3/4
4r	4r	8d	4r	8dd	4r	4r	4r	4r	4r	4r	4r	4r	4r	4r	8dd	8dd	8dd
.	.	8f#	.	8ff#	.	.	.	.	.	.	.	.	.	.	8ff#	8ff#	8ff#
=2	=2	=2	=2	=2	=2	=2	=2	=2	=2	=2	=2	=2	=2	=2	=2	=2	=2
2D	2d	4a'	4f#'	4aa'	4D	2d	2dd	2f#	2a	2d	2d	2f#	2a	4ff#'y	4aa'	4aa'	4aa'
.	.	4a'	4f#'	4aa'	4r	.	.	.	.	.	.	.	.	4ff#'y	4aa'	4aa'	4aa'
4DDz	4Dz	4bz	4gz	4bbz	4r	4ryy	4r	4g	4bz	4Dz	4Dz	4g	4bz	4gg	4bbz	4bbz	4bbz
=3	=3	=3	=3	=3	=3	=3	=3	=3	=3	=3	=3	=3	=3	=3	=3	=3	=3
2D	2d	4a'	4f#'	4aa'	2.r	2.r	2.r	4f#	4a	2d	2d	4f#	4a	4ff#'y	4aa'	4aa'	4aa'
.	.	4a'	4f#'	4aa'	.	.	.	4ryy	4r	.	.	4ryy	4r	4ff#'y	4aa'	4aa'	4aa'
4DDz	4Dz	4g#z	4e#z	4gg#z	.	.	.	4ryy	4r	4Dz	4Dz	4ryy	4r	4ee#	4gg#z	4gg#z	4gg#z
=4	=4	=4	=4	=4	=4	=4	=4	=4	=4	=4	=4	=4	=4	=4	=4	=4	=4
2D	2d	4a'	4f#'	4aa'	4D	2d	2dd	2f#	2a	2d	2d	2f#	2a	4ff#'y	4aa'	4aa'	4aa'
.	.	4a'	4f#'	4aa'	4r	.	.	.	.	.	.	.	.	4ff#'y	4aa'	4aa'	4aa'
4DDz	4Dz	8ddz	8bz	8dddz	4r	4ryy	4r	4g	4bz	4Dz	4Dz	4g	4bz	8bb	8dddz	8dddz	8dddz
.	.	8b	8g	8bb	.	.	.	.	.	.	.	.	.	8gg	8bb	8bb	8bb
=5	=5	=5	=5	=5	=5	=5	=5	=5	=5	=5	=5	=5	=5	=5	=5	=5	=5
2D	2d	4a'	4f#'	4aa'	2.r	2.r	2.r	4f#	4a	2d	2d	4f#	4a	4ff#'y	4aa'	4aa'	4aa'
.	.	4a'	4f#'	4aa'	.	.	.	4ryy	4r	.	.	4ryy	4r	4ff#'y	4aa'	4aa'	4aa'
4r	4r	8d	4r	8dd	.	.	.	4ryy	4r	4r	4r	4ryy	4r	4r	8dd	8dd	8dd
.	.	8f#	.	8ff#	.	.	.	.	.	.	.	.	.	.	8ff#	8ff#	8ff#
=6	=6	=6	=6	=6	=6	=6	=6	=6	=6	=6	=6	=6	=6	=6	=6	=6	=6
2BB	2B	4g'	[2.d	4gg'	4D	4d	4dd	4d	4d	2B	2B	[2.dd	2.dd	[2.dd	4gg'	4gg'	4gg'
.	.	4g	.	4gg	4D	4d	4dd	4d	4d	.	.	.	.	.	4gg'	4gg	4gg
4AA	4A	4f#	.	4ff#	4D	4d	4dd	4d	4d	4A	4A	.	.	.	4ff#	4ff#	4ff#
=7	=7	=7	=7	=7	=7	=7	=7	=7	=7	=7	=7	=7	=7	=7	=7	=7	=7
2GG	2G	4e'	2d]	4ee'	4D	4d	4dd	2.d	2.d	2G	2G	2.dd]	2dd	4dd]	4ee	4ee'	4ee'
.	.	4e'	.	4ee'	4r	4ryy	4r	.	.	.	.	.	.	4b'y	4ee'	4ee'	4ee'
4EEz	4Ez	4b'z	4gz	4bb'z	4r	4ryy	4r	.	.	4Ez	4Ez	.	4ggz	4g'y	4bb'z	4bb'z	4bb'z
=8	=8	=8	=8	=8	=8	=8	=8	=8	=8	=8	=8	=8	=8	=8	=8	=8	=8
2.AA	2.A	2.gT	2.eT	2.cc#t	32AA	2.aTy	2.eeT	2.ATy	2.eT	2.A	2.A	2.cc#ty	2.eeT	2.gT	2.cc#t	2.cc#t	2.cc#t
.	.	.	.	.	32AA	.	.	.	.	.	.	.	.	.	.	.	.
.	.	.	.	.	32AA	.	.	.	.	.	.	.	.	.	.	.	.
.	.	.	.	.	32AA	.	.	.	.	.	.	.	.	.	.	.	.
.	.	.	.	.	32AA	.	.	.	.	.	.	.	.	.	.	.	.
.	.	.	.	.	32AA	.	.	.	.	.	.	.	.	.	.	.	.
.	.	.	.	.	32AA	.	.	.	.	.	.	.	.	.	.	.	.
.	.	.	.	.	32AA	.	.	.	.	.	.	.	.	.	.	.	.
.	.	.	.	.	32AA	.	.	.	.	.	.	.	.	.	.	.	.
.	.	.	.	.	32AA	.	.	.	.	.	.	.	.	.	.	.	.
.	.	.	.	.	32AA	.	.	.	.	.	.	.	.	.	.	.	.
.	.	.	.	.	32AA	.	.	.	.	.	.	.	.	.	.	.	.
.	.	.	.	.	32AA	.	.	.	.	.	.	.	.	.	.	.	.
.	.	.	.	.	32AA	.	.	.	.	.	.	.	.	.	.	.	.
.	.	.	.	.	32AA	.	.	.	.	.	.	.	.	.	.	.	.
.	.	.	.	.	32AA	.	.	.	.	.	.	.	.	.	.	.	.
.	.	.	.	.	32AA	.	.	.	.	.	.	.	.	.	.	.	.
.	.	.	.	.	32AA	.	.	.	.	.	.	.	.	.	.	.	.
.	.	.	.	.	32AA	.	.	.	.	.	.	.	.	.	.	.	.
.	.	.	.	.	32AA	.	.	.	.	.	.	.	.	.	.	.	.
.	.	.	.	.	32AA	.	.	.	.	.	.	.	.	.	.	.	.
.	.	.	.	.	32AA	.	.	.	.	.	.	.	.	.	.	.	.
.	.	.	.	.	32AA	.	.	.	.	.	.	.	.	.	.	.	.
.	.	.	.	.	32AA	.	.	.	.	.	.	.	.	.	.	.	.
.	.	.	.	32bQ	.	.	.	.	.	.	.	.	.	32f#Q	32bQ	32bQ	32bQ
.	.	.	.	32cc#Q	.	.	.	.	.	.	.	.	.	32gQ	32cc#Q	32cc#Q	32cc#Q
=9	=9	=9	=9	=9	=9	=9	=9	=9	=9	=9	=9	=9	=9	=9	=9	=9	=9
4DD	4D	4f#	4d	4dd	4D	4d	4dd	4F#	4d	4D	4D	4dd	4dd	4f#	4dd	4dd	4dd
4r	4r	4r	4r	4r	4r	4ryy	4r	4ryy	4r	4r	4r	4ryy	4r	4ryy	4r	4r	4r
4r	4r	8d	4r	8dd	4r	4ryy	4r	4ryy	4r	4r	4r	4ryy	4r	4ryy	4r	32ryy	8dd
.	.	.	.	.	.	.	.	.	.	.	.	.	.	.	.	32ryy	.
.	.	.	.	.	.	.	.	.	.	.	.	.	.	.	.	32ryy	.
.	.	.	.	.	.	.	.	.	.	.	.	.	.	.	.	32ryy	.
.	.	8f#	.	8ff#	.	.	.	.	.	.	.	.	.	.	.	32ryy	8ff#
.	.	.	.	.	.	.	.	.	.	.	.	.	.	.	.	32ryy	.
.	.	.	.	.	.	.	.	.	.	.	.	.	.	.	.	32ryy	.
.	.	.	.	.	.	.	.	.	.	.	.	.	.	.	.	32ryy	.
!!WARNING: This measure contained too few data records
=10	=10	=10	=10	=10	=10	=10	=10	=10	=10	=10	=10	=10	=10	=10	=10	=10	=10
*staff:1	*staff:1	*staff:2	*staff:3	*staff:4	*	*	*	*staff:5	*staff:5	*	*	*	*	*	*staff:6	*	*staff:7
2D	2d	4a'	4f#'	4aa'	2.ryy	2.ryy	2.ryy	2f#	2a	2.ryy	2.ryy	2.ryy	2.ryy	2.ryy	2ff#	2.ryy	2aa
.	.	4a'	4f#'	4aa'	.	.	.	.	.	.	.	.	.	.	.	.	.
4DD	4D	4b	4g	4bb	.	.	.	4g	4b	.	.	.	.	.	4gg	.	4bb
=11	=11	=11	=11	=11	=11	=11	=11	=11	=11	=11	=11	=11	=11	=11	=11	=11	=11
2D	2d	4a'	4f#'	4aa'	2.ryy	2.ryy	2.ryy	4f#	4a	2.ryy	2.ryy	2.ryy	2.ryy	2.ryy	2ff#	2.ryy	2aa
.	.	4a'	4f#'	4aa'	.	.	.	4ryy	4r	.	.	.	.	.	.	.	.
4DD	4D	4g#	4e#	4gg#	.	.	.	4ryy	4r	.	.	.	.	.	4ee#	.	4gg#
=12	=12	=12	=12	=12	=12	=12	=12	=12	=12	=12	=12	=12	=12	=12	=12	=12	=12
2D	2d	4a'	4f#'	4aa'	2.ryy	2.ryy	2.ryy	2f#	2a	2.ryy	2.ryy	2.ryy	2.ryy	2.ryy	2ff#	2.ryy	2aa
.	.	4a'	4f#'	4aa'	.	.	.	.	.	.	.	.	.	.	.	.	.
4DD	4D	8dd	8b	8ddd	.	.	.	4g	4b	.	.	.	.	.	8bb	.	8ddd
.	.	8b	8g	8bb	.	.	.	.	.	.	.	.	.	.	8gg	.	8bb
=13	=13	=13	=13	=13	=13	=13	=13	=13	=13	=13	=13	=13	=13	=13	=13	=13	=13
2D	2d	4a'	4f#'	4aa'	2.ryy	2.ryy	2.ryy	4f#	4a	2.ryy	2.ryy	2.ryy	2.ryy	2.ryy	2ff#	2.ryy	2aa
.	.	4a'	4f#'	4aa'	.	.	.	4ryy	4r	.	.	.	.	.	.	.	.
4r	4r	8d	4r	8dd	.	.	.	4ryy	4r	.	.	.	.	.	4r	.	8dd
.	.	8f#	.	8ff#	.	.	.	.	.	.	.	.	.	.	.	.	8ff#
=14	=14	=14	=14	=14	=14	=14	=14	=14	=14	=14	=14	=14	=14	=14	=14	=14	=14
2BB	2B	4g'	[2.d	4gg'	2.ryy	2.ryy	2.ryy	[2.d	2.d	2.ryy	2.ryy	2.ryy	2.ryy	2.ryy	[2.dd	2.ryy	2gg
.	.	4g	.	4gg	.	.	.	.	.	.	.	.	.	.	.	.	.
4AA	4A	4f#	.	4ff#	.	.	.	.	.	.	.	.	.	.	.	.	4ff#
=15	=15	=15	=15	=15	=15	=15	=15	=15	=15	=15	=15	=15	=15	=15	=15	=15	=15
2GG	2G	4e'	2d]	4ee'	2.ryy	2.ryy	2.ryy	2.d]	2.d	2.ryy	2.ryy	2.ryy	2.ryy	2.ryy	2.dd]	2.ryy	2ee
.	.	4e'	.	4ee'	.	.	.	.	.	.	.	.	.	.	.	.	.
4EE	4E	4b'	4g	4bb'	.	.	.	.	.	.	.	.	.	.	.	.	4eee
=16	=16	=16	=16	=16	=16	=16	=16	=16	=16	=16	=16	=16	=16	=16	=16	=16	=16
2.AA	2.A	2.gT	2.eT	2.cc#t	2.ryy	2.ryy	2.ryy	2.A	2.e	2.ryy	2.ryy	2.ryy	2.ryy	2.ryy	2.ggT	2.ryy	2.ccc#t
.	.	.	.	32bQ	.	.	.	.	.	.	.	.	.	.	32ff#Q	.	32bbQ
.	.	.	.	32cc#Q	.	.	.	.	.	.	.	.	.	.	32ggQ	.	32ccc#Q
=17	=17	=17	=17	=17	=17	=17	=17	=17	=17	=17	=17	=17	=17	=17	=17	=17	=17
4DD	4D	4f#	4d	4dd	2ryy	2ryy	2ryy	4F#	4d	2ryy	2ryy	2ryy	2ryy	2ryy	4ff#	2ryy	4ddd
4r	4r	4r	4r	4r	.	.	.	4ryy	4r	.	.	.	.	.	4r	.	4r
=18||	=18||	=18||	=18||	=18||	=18||	=18||	=18||	=18||	=18||	=18||	=18||	=18||	=18||	=18||	=18||	=18||	=18||
*>B	*>B	*>B	*>B	*>B	*>B	*>B	*>B	*>B	*>B	*>B	*>B	*>B	*>B	*>B	*>B	*>B	*>B
*staff:12	*staff:12	*staff:13	*staff:14	*staff:15	*staff:16	*staff:17	*staff:17	*staff:18	*staff:18	*staff:19	*staff:19	*staff:20	*staff:20	*staff:21	*staff:21	*staff:22	*staff:22
4r	4r	4r	4r	8d	4r	4r	4r	4r	4r	4r	4r	4r	4r	4r	4r	4r	4r
.	.	.	.	8f#	.	.	.	.	.	.	.	.	.	.	.	.	.
=19	=19	=19	=19	=19	=19	=19	=19	=19	=19	=19	=19	=19	=19	=19	=19	=19	=19
2D	2d	2d	2f#	4a'	4D	2dd	2ff#	2.r	2.r	2d	2d	2a	2ff#	2f#	2a	2aa	2aa
.	.	.	.	4a'	4r	.	.	.	.	.	.	.	.	.	.	.	.
4C#	4c#	4g	4e	4a#	4r	4ee	4ee	.	.	4c#	4c#	4a#	4gg	4g	4a#	4aa#	4aa#
=20	=20	=20	=20	=20	=20	=20	=20	=20	=20	=20	=20	=20	=20	=20	=20	=20	=20
4D'	4d'	4f#'	4f#'	4b'	2.r	2dd	2dd	2.r	2.r	2d	2d	2b	2ff#	2f#	2b	2bb'	2bb'
4D'	4d'	4f#'	4f#'	4b'	.	.	.	.	.	.	.	.	.	.	.	.	.
4C#	4c#	4e	4a#	4cc#	.	4ee	4ee	.	.	4c#	4c#	4a#	4ee	4a#	4cc#	4ccc#	4ccc#
=21	=21	=21	=21	=21	=21	=21	=21	=21	=21	=21	=21	=21	=21	=21	=21	=21	=21
4BB'	4B'	4f#'	4b'	4dd'	4D	4dd	4ff#	2.r	2.r	2B	2B	2b	2dd	2b	2dd	4ddd'	4ddd'
4BB'	4B'	4f#'	4b'	4dd'	4r	4ff#	4ff#	.	.	.	.	.	.	.	.	4bb'	4bb'
4FF#'	4F#'	4c#'	4a#'	4ff#'	4r	4ee	4ee	.	.	4F#	4F#	4a#	4cc#	4cc#	4ff#	4aa#'	4aa#'
=22	=22	=22	=22	=22	=22	=22	=22	=22	=22	=22	=22	=22	=22	=22	=22	=22	=22
2BBB	2BB	2d	2d 2b	2bb	2.r	2dd	2dd	4ryy	4r	2BB	2BB	2b	2dd	2dd	2bb	2bb	2bb
.	.	.	.	.	.	.	.	4ryy	4r	.	.	.	.	.	.	.	.
32ryy	8B	8B	4dd 4ff#	4ddd	.	4dd	4ff#	4d	4f#	8B	8B	4dd	4ff#	8b	8b	8b	8b
32ryy	.	.	.	.	.	.	.	.	.	.	.	.	.	.	.	.	.
32ryy	.	.	.	.	.	.	.	.	.	.	.	.	.	.	.	.	.
32ryy	.	.	.	.	.	.	.	.	.	.	.	.	.	.	.	.	.
32ryy	8d	8d	.	.	.	.	.	.	.	8d	8d	.	.	8dd	8dd	8dd	8dd
32ryy	.	.	.	.	.	.	.	.	.	.	.	.	.	.	.	.	.
32ryy	.	.	.	.	.	.	.	.	.	.	.	.	.	.	.	.	.
32ryy	.	.	.	.	.	.	.	.	.	.	.	.	.	.	.	.	.
!!WARNING: This measure contained too few data records
=23	=23	=23	=23	=23	=23	=23	=23	=23	=23	=23	=23	=23	=23	=23	=23	=23	=23
2.ryy	4f#	4f#	4dd 4ff#	4ddd	2.r	4dd	4ff#	4d	4f#	4f#	4f#	4dd	4ff#	4ff#	4ff#	4ff#	4ff#
.	8B	8B	4dd 4ff#	4ddd	.	4dd	4ff#	4d	4f#	8B	8B	4dd	4ff#	8b	8b	8b	8b
.	8d	8d	.	.	.	.	.	.	.	8d	8d	.	.	8dd	8dd	8dd	8dd
.	4f#	4f#	4dd 4ff#	4ddd	.	4dd	4ff#	4d	4f#	4f#	4f#	4dd	4ff#	4ff#	4ff#	4ff#	4ff#
=24	=24	=24	=24	=24	=24	=24	=24	=24	=24	=24	=24	=24	=24	=24	=24	=24	=24
8EE	8B	8B	4dd 4ff#	4ddd	2.r	4dd	4ff#	4d	4f#	8B	8B	2dd	2ff#	8b	8b	8b	8b
8GG#	8d	8d	.	.	.	.	.	.	.	8d	8d	.	.	8dd	8dd	8dd	8dd
32ryy	4f#	4f#	4dd 4ff#	4ddd	.	4dd	4ff#	4d	4f#	4f#	4f#	.	.	4ff#	4ff#	4ff#	4ff#
32ryy	.	.	.	.	.	.	.	.	.	.	.	.	.	.	.	.	.
32ryy	.	.	.	.	.	.	.	.	.	.	.	.	.	.	.	.	.
32ryy	.	.	.	.	.	.	.	.	.	.	.	.	.	.	.	.	.
32ryy	.	.	.	.	.	.	.	.	.	.	.	.	.	.	.	.	.
32ryy	.	.	.	.	.	.	.	.	.	.	.	.	.	.	.	.	.
32ryy	.	.	.	.	.	.	.	.	.	.	.	.	.	.	.	.	.
32ryy	.	.	.	.	.	.	.	.	.	.	.	.	.	.	.	.	.
32ryy	8E	4E	8ddd	8ddd	.	4ee	4ee	4ryy	4r	8E	8E	4g#	4dd	4gg#	4bb	4ddd	4ddd
32ryy	.	.	.	.	.	.	.	.	.	.	.	.	.	.	.	.	.
32ryy	.	.	.	.	.	.	.	.	.	.	.	.	.	.	.	.	.
32ryy	.	.	.	.	.	.	.	.	.	.	.	.	.	.	.	.	.
32ryy	8G#	.	8ccc#	8ccc#	.	.	.	.	.	8G#	8G#	.	.	.	.	.	.
32ryy	.	.	.	.	.	.	.	.	.	.	.	.	.	.	.	.	.
32ryy	.	.	.	.	.	.	.	.	.	.	.	.	.	.	.	.	.
32ryy	.	.	.	.	.	.	.	.	.	.	.	.	.	.	.	.	.
!!WARNING: This measure contained too few data records
=25	=25	=25	=25	=25	=25	=25	=25	=25	=25	=25	=25	=25	=25	=25	=25	=25	=25
4BB	4B	4E	8bb	8bb	2.r	4ee	4ee	2.r	2.r	4B	4B	4g#	4dd	4gg#	4bb	4ddd	4ddd
.	.	.	8aa	8aa	.	.	.	.	.	.	.	.	.	.	.	.	.
8EE	8E	4E	8gg#	8gg#	.	4ee	4ee	.	.	8E	8E	4g#	4dd	4gg#	4bb	4ddd	4ddd
8GG#	8G#	.	8ff#	8ff#	.	.	.	.	.	8G#	8G#	.	.	.	.	.	.
4BB	4B	4E	8ee	8ee	.	4ee	4ee	.	.	4B	4B	4g#	4dd	4gg#	4bb	4ddd	4ddd
.	.	.	8dd	8dd	.	.	.	.	.	.	.	.	.	.	.	.	.
=26	=26	=26	=26	=26	=26	=26	=26	=26	=26	=26	=26	=26	=26	=26	=26	=26	=26
8EE	8E	4E	8cc#	8cc#	2.r	4ee	4ee	2.r	2.r	8E	8E	2.g#	2.dd	4gg#	4bb	4ddd	4ddd
8GG#	8G#	.	8b	8b	.	.	.	.	.	8G#	8G#	.	.	.	.	.	.
4BB	4B	4E	8a	8a	.	4ee	4ee	.	.	4B	4B	.	.	4gg#	4bb	4ddd	4ddd
.	.	.	8g#	8g#	.	.	.	.	.	.	.	.	.	.	.	.	.
8EE	8E	4G#	8f#	8f#	.	4ee	4ee	.	.	8E	8E	.	.	4bb	4bb	4ddd	4ddd
8GG#	8G#	.	8e	8e	.	.	.	.	.	8G#	8G#	.	.	.	.	.	.
=27	=27	=27	=27	=27	=27	=27	=27	=27	=27	=27	=27	=27	=27	=27	=27	=27	=27
*staff:1	*staff:1	*staff:2	*staff:3	*staff:4	*staff:5	*staff:6	*staff:6	*staff:7	*staff:7	*staff:8	*staff:8	*staff:9	*staff:9	*staff:10	*staff:10	*staff:11	*staff:11
4AA	4A	4A	8d	8d	2.r	2.ee	2.ee	2.r	2.r	4A	4A	4a	4cc#	4aa	4aa	8ddd	8ddd
.	.	.	8c#	8c#	.	.	.	.	.	.	.	.	.	.	.	8ccc#	8ccc#
4CC#	4C#	4c#	8e'	8e'	.	.	.	.	.	4C#	4C#	4b	4dd	8ee	8ccc#	8eee'	8eee'
.	.	.	8d'	8d'	.	.	.	.	.	.	.	.	.	8dd	8bb	8ddd'	8ddd'
4EE	4E	4e	8c#'	8c#'	.	.	.	.	.	4E	4E	4g#	4b	8cc#	8aa	8ccc#'	8ccc#'
.	.	.	8B'	8B'	.	.	.	.	.	.	.	.	.	8b	8gg#	8bb'	8bb'
=28	=28	=28	=28	=28	=28	=28	=28	=28	=28	=28	=28	=28	=28	=28	=28	=28	=28
4AAA	4AA	4A	2A	2A	2.r	2a	2ee	2.AA	[2.A	4AA	4AA	4a	4a	4cc#	4aa	4aa	4aa
4AA	4A	4a	.	.	.	.	.	.	.	4A	4A	4ryy	4r	4ryy	4r	4r	4r
4r	4r	4r	4r	8c#	.	4ryy	4r	.	.	4r	4r	4ryy	4r	4ryy	4r	4r	4r
.	.	.	.	8e	.	.	.	.	.	.	.	.	.	.	.	.	.
=29	=29	=29	=29	=29	=29	=29	=29	=29	=29	=29	=29	=29	=29	=29	=29	=29	=29
2AAA	2AA	[2.A	4e'	4gn'	2.r	2.r	2.r	2.AA	2.A_	2.r	2.r	2.r	2.r	2.r	2.r	2.r	2.r
.	.	.	4e'	4g'	.	.	.	.	.	.	.	.	.	.	.	.	.
4r	4r	.	4d#	4f#	.	.	.	.	.	.	.	.	.	.	.	.	.
=30	=30	=30	=30	=30	=30	=30	=30	=30	=30	=30	=30	=30	=30	=30	=30	=30	=30
4AAA	4AA	2A]	4e'	4g'	2.r	2.r	2.r	2.AA	2.A_	2.ryy	4r	2.r	2.r	2.r	2.r	2.r	2.r
4r	4r	.	4e'	4g'	.	.	.	.	.	.	4r	.	.	.	.	.	.
4r	4r	4d	4fn	4b-	.	.	.	.	.	.	4d	.	.	.	.	.	.
=31	=31	=31	=31	=31	=31	=31	=31	=31	=31	=31	=31	=31	=31	=31	=31	=31	=31
4AAA	4AA	4c#'	4e'	4a'	2.r	2.r	2.r	2.AA	2.A_	2.ryy	4c#	2.r	2.r	2.r	2.r	2.r	2.r
4r	4r	4c#'	4e'	4a'	.	.	.	.	.	.	4e'	.	.	.	.	.	.
4r	4r	8fn	4dn	4g#	.	.	.	.	.	.	8fn	.	.	.	.	.	.
.	.	8d	.	.	.	.	.	.	.	.	8d	.	.	.	.	.	.
=32	=32	=32	=32	=32	=32	=32	=32	=32	=32	=32	=32	=32	=32	=32	=32	=32	=32
4AAA	4AA	4c#'	4e'	4a'	32AA	2.r	2.r	2.AA	2.A]	2.ryy	4A	2.r	2.r	2.r	2.r	2.ryy	4r
.	.	.	.	.	32AA	.	.	.	.	.	.	.	.	.	.	.	.
.	.	.	.	.	32AA	.	.	.	.	.	.	.	.	.	.	.	.
.	.	.	.	.	32AA	.	.	.	.	.	.	.	.	.	.	.	.
.	.	.	.	.	32AA	.	.	.	.	.	.	.	.	.	.	.	.
.	.	.	.	.	32AA	.	.	.	.	.	.	.	.	.	.	.	.
.	.	.	.	.	32AA	.	.	.	.	.	.	.	.	.	.	.	.
.	.	.	.	.	32AA	.	.	.	.	.	.	.	.	.	.	.	.
4r	4r	4c#'	4e'	4a'	32AA	.	.	.	.	.	4r	.	.	.	.	.	4r
.	.	.	.	.	32AA	.	.	.	.	.	.	.	.	.	.	.	.
.	.	.	.	.	32AA	.	.	.	.	.	.	.	.	.	.	.	.
.	.	.	.	.	32AA	.	.	.	.	.	.	.	.	.	.	.	.
.	.	.	.	.	32AA	.	.	.	.	.	.	.	.	.	.	.	.
.	.	.	.	.	32AA	.	.	.	.	.	.	.	.	.	.	.	.
.	.	.	.	.	32AA	.	.	.	.	.	.	.	.	.	.	.	.
.	.	.	.	.	32AA	.	.	.	.	.	.	.	.	.	.	.	.
4r	4r	4r	4r	8A	32AA	.	.	.	.	.	4r	.	.	.	.	.	4bb-z
.	.	.	.	.	32AA	.	.	.	.	.	.	.	.	.	.	.	.
.	.	.	.	.	32AA	.	.	.	.	.	.	.	.	.	.	.	.
.	.	.	.	.	32AA	.	.	.	.	.	.	.	.	.	.	.	.
.	.	.	.	8c#	32AA	.	.	.	.	.	.	.	.	.	.	.	.
.	.	.	.	.	32AA	.	.	.	.	.	.	.	.	.	.	.	.
.	.	.	.	.	32AA	.	.	.	.	.	.	.	.	.	.	.	.
.	.	.	.	.	32AA	.	.	.	.	.	.	.	.	.	.	.	.
=33	=33	=33	=33	=33	=33	=33	=33	=33	=33	=33	=33	=33	=33	=33	=33	=33	=33
2.r	2.r	2.r	2.r	8e	32AA	2.r	2.r	2.r	2.r	2.r	2.r	2.r	2.r	2.r	2.r	2.ryy	4aa'
.	.	.	.	.	32AA	.	.	.	.	.	.	.	.	.	.	.	.
.	.	.	.	.	32AA	.	.	.	.	.	.	.	.	.	.	.	.
.	.	.	.	.	32AA	.	.	.	.	.	.	.	.	.	.	.	.
.	.	.	.	8c#	32AA	.	.	.	.	.	.	.	.	.	.	.	.
.	.	.	.	.	32AA	.	.	.	.	.	.	.	.	.	.	.	.
.	.	.	.	.	32AA	.	.	.	.	.	.	.	.	.	.	.	.
.	.	.	.	.	32AA	.	.	.	.	.	.	.	.	.	.	.	.
.	.	.	.	8e	32AA	.	.	.	.	.	.	.	.	.	.	.	4aa'
.	.	.	.	.	32AA	.	.	.	.	.	.	.	.	.	.	.	.
.	.	.	.	.	32AA	.	.	.	.	.	.	.	.	.	.	.	.
.	.	.	.	.	32AA	.	.	.	.	.	.	.	.	.	.	.	.
.	.	.	.	8g	32AA	.	.	.	.	.	.	.	.	.	.	.	.
.	.	.	.	.	32AA	.	.	.	.	.	.	.	.	.	.	.	.
.	.	.	.	.	32AA	.	.	.	.	.	.	.	.	.	.	.	.
.	.	.	.	.	32AA	.	.	.	.	.	.	.	.	.	.	.	.
.	.	.	.	8A	32AA	.	.	.	.	.	.	.	.	.	.	.	4bb-z
.	.	.	.	.	32AA	.	.	.	.	.	.	.	.	.	.	.	.
.	.	.	.	.	32AA	.	.	.	.	.	.	.	.	.	.	.	.
.	.	.	.	.	32AA	.	.	.	.	.	.	.	.	.	.	.	.
.	.	.	.	8c#	32AA	.	.	.	.	.	.	.	.	.	.	.	.
.	.	.	.	.	32AA	.	.	.	.	.	.	.	.	.	.	.	.
.	.	.	.	.	32AA	.	.	.	.	.	.	.	.	.	.	.	.
.	.	.	.	.	32AA	.	.	.	.	.	.	.	.	.	.	.	.
=34	=34	=34	=34	=34	=34	=34	=34	=34	=34	=34	=34	=34	=34	=34	=34	=34	=34
2.r	2.r	2.r	2.r	8e	32AA	2.r	2.r	2.r	2.r	2.r	2.r	2.r	2.r	2.ryy	4r	2.ryy	4aa'
.	.	.	.	.	32AA	.	.	.	.	.	.	.	.	.	.	.	.
.	.	.	.	.	32AA	.	.	.	.	.	.	.	.	.	.	.	.
.	.	.	.	.	32AA	.	.	.	.	.	.	.	.	.	.	.	.
.	.	.	.	8c#	32AA	.	.	.	.	.	.	.	.	.	.	.	.
.	.	.	.	.	32AA	.	.	.	.	.	.	.	.	.	.	.	.
.	.	.	.	.	32AA	.	.	.	.	.	.	.	.	.	.	.	.
.	.	.	.	.	32AA	.	.	.	.	.	.	.	.	.	.	.	.
.	.	.	.	8e	32AA	.	.	.	.	.	.	.	.	.	4r	.	4aa'
.	.	.	.	.	32AA	.	.	.	.	.	.	.	.	.	.	.	.
.	.	.	.	.	32AA	.	.	.	.	.	.	.	.	.	.	.	.
.	.	.	.	.	32AA	.	.	.	.	.	.	.	.	.	.	.	.
.	.	.	.	8g	32AA	.	.	.	.	.	.	.	.	.	.	.	.
.	.	.	.	.	32AA	.	.	.	.	.	.	.	.	.	.	.	.
.	.	.	.	.	32AA	.	.	.	.	.	.	.	.	.	.	.	.
.	.	.	.	.	32AA	.	.	.	.	.	.	.	.	.	.	.	.
.	.	.	.	8a	32AA	.	.	.	.	.	.	.	.	.	4bb-z	.	4r
.	.	.	.	.	32AA	.	.	.	.	.	.	.	.	.	.	.	.
.	.	.	.	.	32AA	.	.	.	.	.	.	.	.	.	.	.	.
.	.	.	.	.	32AA	.	.	.	.	.	.	.	.	.	.	.	.
.	.	.	.	8cc#	32AA	.	.	.	.	.	.	.	.	.	.	.	.
.	.	.	.	.	32AA	.	.	.	.	.	.	.	.	.	.	.	.
.	.	.	.	.	32AA	.	.	.	.	.	.	.	.	.	.	.	.
.	.	.	.	.	32AA	.	.	.	.	.	.	.	.	.	.	.	.
=35	=35	=35	=35	=35	=35	=35	=35	=35	=35	=35	=35	=35	=35	=35	=35	=35	=35
2.r	2.r	4c# 4e	4A 4g	8ee	32AA	2.r	2.r	2.r	2.r	4c#	4e	2.r	2.r	2.ryy	4aa'	2.r	2.r
.	.	.	.	.	32AA	.	.	.	.	.	.	.	.	.	.	.	.
.	.	.	.	.	32AA	.	.	.	.	.	.	.	.	.	.	.	.
.	.	.	.	.	32AA	.	.	.	.	.	.	.	.	.	.	.	.
.	.	.	.	8cc#	32AA	.	.	.	.	.	.	.	.	.	.	.	.
.	.	.	.	.	32AA	.	.	.	.	.	.	.	.	.	.	.	.
.	.	.	.	.	32AA	.	.	.	.	.	.	.	.	.	.	.	.
.	.	.	.	.	32AA	.	.	.	.	.	.	.	.	.	.	.	.
.	.	4r	4r	8ee	32AA	.	.	.	.	4ryy	4r	.	.	.	4aa'	.	.
.	.	.	.	.	32AA	.	.	.	.	.	.	.	.	.	.	.	.
.	.	.	.	.	32AA	.	.	.	.	.	.	.	.	.	.	.	.
.	.	.	.	.	32AA	.	.	.	.	.	.	.	.	.	.	.	.
.	.	.	.	8gg	32AA	.	.	.	.	.	.	.	.	.	.	.	.
.	.	.	.	.	32AA	.	.	.	.	.	.	.	.	.	.	.	.
.	.	.	.	.	32AA	.	.	.	.	.	.	.	.	.	.	.	.
.	.	.	.	.	32AA	.	.	.	.	.	.	.	.	.	.	.	.
.	.	4r	4r	8a	32AA	.	.	.	.	4ryy	4r	.	.	.	4bb-	.	.
.	.	.	.	.	32AA	.	.	.	.	.	.	.	.	.	.	.	.
.	.	.	.	.	32AA	.	.	.	.	.	.	.	.	.	.	.	.
.	.	.	.	.	32AA	.	.	.	.	.	.	.	.	.	.	.	.
.	.	.	.	8cc#	32AA	.	.	.	.	.	.	.	.	.	.	.	.
.	.	.	.	.	32AA	.	.	.	.	.	.	.	.	.	.	.	.
.	.	.	.	.	32AA	.	.	.	.	.	.	.	.	.	.	.	.
.	.	.	.	.	32AA	.	.	.	.	.	.	.	.	.	.	.	.
=36	=36	=36	=36	=36	=36	=36	=36	=36	=36	=36	=36	=36	=36	=36	=36	=36	=36
*staff:12	*staff:12	*staff:13	*staff:14	*staff:15	*staff:16	*staff:17	*staff:17	*staff:18	*staff:18	*staff:19	*staff:19	*staff:20	*staff:20	*staff:21	*staff:21	*staff:22	*staff:22
2.r	2.r	4c# 4e	4A 4g	8ee	32AA	2.r	2.r	2.r	2.r	4c#	4e	2.r	2.r	4ryy	4aa'	4r	4r
.	.	.	.	.	32AA	.	.	.	.	.	.	.	.	.	.	.	.
.	.	.	.	.	32AA	.	.	.	.	.	.	.	.	.	.	.	.
.	.	.	.	.	32AA	.	.	.	.	.	.	.	.	.	.	.	.
.	.	.	.	8cc#	32AA	.	.	.	.	.	.	.	.	.	.	.	.
.	.	.	.	.	32AA	.	.	.	.	.	.	.	.	.	.	.	.
.	.	.	.	.	32AA	.	.	.	.	.	.	.	.	.	.	.	.
.	.	.	.	.	32AA	.	.	.	.	.	.	.	.	.	.	.	.
.	.	4r	4r	8ee	32AA	.	.	.	.	4ryy	4r	.	.	4ryy	4aa'	4r	4r
.	.	.	.	.	32AA	.	.	.	.	.	.	.	.	.	.	.	.
.	.	.	.	.	32AA	.	.	.	.	.	.	.	.	.	.	.	.
.	.	.	.	.	32AA	.	.	.	.	.	.	.	.	.	.	.	.
.	.	.	.	8gg	32AA	.	.	.	.	.	.	.	.	.	.	.	.
.	.	.	.	.	32AA	.	.	.	.	.	.	.	.	.	.	.	.
.	.	.	.	.	32AA	.	.	.	.	.	.	.	.	.	.	.	.
.	.	.	.	.	32AA	.	.	.	.	.	.	.	.	.	.	.	.
.	.	8d	8f#	8dd	32AA	.	.	.	.	4ryy	4r	.	.	4dd	8dd	8dd	8dd
.	.	.	.	.	32AA	.	.	.	.	.	.	.	.	.	.	.	.
.	.	.	.	.	32AA	.	.	.	.	.	.	.	.	.	.	.	.
.	.	.	.	.	32AA	.	.	.	.	.	.	.	.	.	.	.	.
.	.	8f#	8dd	8ff#	32AA	.	.	.	.	.	.	.	.	.	8ff#	8ff#	8ff#
.	.	.	.	.	32AA	.	.	.	.	.	.	.	.	.	.	.	.
.	.	.	.	.	32AA	.	.	.	.	.	.	.	.	.	.	.	.
.	.	.	.	.	32AA	.	.	.	.	.	.	.	.	.	.	.	.
=37	=37	=37	=37	=37	=37	=37	=37	=37	=37	=37	=37	=37	=37	=37	=37	=37	=37
4D	4d	8a	4ff#	8aa	4D	4d	4dd	4d	4d	4d	4d	2f#	2a	2ff#	2aa	8aa	8aa
.	.	8f#	.	8ff#	.	.	.	.	.	.	.	.	.	.	.	8ff#	8ff#
4D	4d	8a	8ff#	8aa	4D	4d	4dd	4d	4d	4d	4d	.	.	.	.	8aa	8aa
.	.	8dd	8dd	8ddd	.	.	.	.	.	.	.	.	.	.	.	8ddd	8ddd
4D	4d	8b	8gg	8bb	4D	4d	4dd	4d	4d	4d	4d	4g	4b	4gg	4bb	8bb	8bb
.	.	8dd	8dd	8ddd	.	.	.	.	.	.	.	.	.	.	.	8ddd	8ddd
=38	=38	=38	=38	=38	=38	=38	=38	=38	=38	=38	=38	=38	=38	=38	=38	=38	=38
2.D	2.d	4a'	4ff#'	4aa'	2D	2d	2dd	2d	2d	2.d	2.d	4f#	4a	2ff#	2aa	4aa'	4aa'
.	.	4a'	4ff#'	4aa'	.	.	.	.	.	.	.	4ryy	4r	.	.	4aa'	4aa'
.	.	4g#	4ee#	4gg#	4r	4d	4dd	4d	4d	.	.	4ryy	4r	4ee#	4gg#	4gg#	4gg#
=39	=39	=39	=39	=39	=39	=39	=39	=39	=39	=39	=39	=39	=39	=39	=39	=39	=39
8D	8d	4a'	4ff#'	4aa'	4D	4d	4dd	4d	4d	8d	8d	2f#	2a	2ff#	2aa	4aa'	4aa'
8DD	8D	.	.	.	.	.	.	.	.	8D	8D	.	.	.	.	.	.
8D	8d	8a	8ff#	8aa	8D	8d	8dd	8d	8d	8d	8d	.	.	.	.	8aa	8aa
8DD	8D	8dd	8dd	8ddd	8D	8d	8dd	8d	8d	8D	8D	.	.	.	.	8ddd	8ddd
8D	8d	8b	8gg	8bb	8D	8d	8dd	8d	8d	8d	8d	4g	4b	4gg	4bb	8bb	8bb
8DD	8D	8dd	8dd	8ddd	8D	8d	8dd	8d	8d	8D	8D	.	.	.	.	8ddd	8ddd
=40	=40	=40	=40	=40	=40	=40	=40	=40	=40	=40	=40	=40	=40	=40	=40	=40	=40
2D	2d	4a'	4ff#'	4aa'	4D	2d	2dd	2d	2d	2d	2d	4f#	4a	2ff#	2aa	4aa'	4aa'
.	.	4a'	4ff#'	4aa'	4r	.	.	.	.	.	.	4ryy	4r	.	.	4aa'	4aa'
8D	8d	8d	4r	8dd	4r	4ryy	4r	4r	4r	8d	8d	4ryy	4r	4r	8dd	8dd	8dd
8C#	8c#	8f#	.	8ff#	.	.	.	.	.	8c#	8c#	.	.	.	8ff#	8ff#	8ff#
=41	=41	=41	=41	=41	=41	=41	=41	=41	=41	=41	=41	=41	=41	=41	=41	=41	=41
2BB	2B	4g'	[2.d [2.dd	4gg'	4D	2.d	[2.dd	[2.d	[2.d	2B	2B	2.d	[2.dd	[2.dd	4gg'	4gg'	4gg'
.	.	4g	.	4gg	4D	.	.	.	.	.	.	.	.	.	4gg	4gg	4gg
4AA	4A	4f#	.	4ff#	4D	.	.	.	.	4A	4A	.	.	.	4ff#	4ff#	4ff#
=42	=42	=42	=42	=42	=42	=42	=42	=42	=42	=42	=42	=42	=42	=42	=42	=42	=42
2GG	2G	2.e	2d] 2dd]	4ee'	4D	4d	4dd]	4d]	4d]	4G	4G	4d	4dd]	2.dd]	4ee'	4ee'	4ee'
.	.	.	.	4ee'	4r	4ryy	4r	4r	4r	4r	4r	4g	4b	.	4ee'	4ee'	4ee'
4EE	4E	.	8b	4bb'z	4r	4ryy	4r	4r	4r	4r	4r	4g	4b	.	4bb'z	4bb'z	4bb'z
.	.	.	8g	.	.	.	.	.	.	.	.	.	.	.	.	.	.
=43	=43	=43	=43	=43	=43	=43	=43	=43	=43	=43	=43	=43	=43	=43	=43	=43	=43
2.AA	2.A	2.eT	2.c#	2.gT	4AA	2.a	2.ee	2.A	2.e	2.c#	2.e	2.g	2.cc#	2.g	2.gT	2.gT	2.gT
.	.	.	.	.	4r	.	.	.	.	.	.	.	.	.	.	.	.
.	.	.	.	.	4r	.	.	.	.	.	.	.	.	.	.	.	.
.	.	32dQ	.	32f#Q	.	.	.	.	.	.	.	.	.	32f#Q	32f#Q	32f#Q	32f#Q
.	.	32eQ	.	32gQ	.	.	.	.	.	.	.	.	.	32gQ	32gQ	32gQ	32gQ
=44	=44	=44	=44	=44	=44	=44	=44	=44	=44	=44	=44	=44	=44	=44	=44	=44	=44
4DD	4D	4d	4d	4f#	4D	4dd	4ff#	4d	4f#	4d	4f#	4f#	4dd	4f#	4f#	4f#	4f#
4r	4r	4r	4r	4r	4r	4ryy	4r	4ryy	4r	4ryy	4r	4ryy	4r	4ryy	4r	4r	4r
4r	4r	4d	4d	4ddd	4r	4ryy	4r	4ryy	4r	4ryy	4r	4ryy	4r	4dd	4ddd	4ddd	4ddd
=45	=45	=45	=45	=45	=45	=45	=45	=45	=45	=45	=45	=45	=45	=45	=45	=45	=45
*staff:1	*staff:1	*staff:2	*staff:3	*staff:4	*staff:5	*staff:6	*staff:6	*staff:7	*staff:7	*staff:8	*staff:8	*staff:9	*staff:9	*staff:10	*staff:10	*staff:11	*staff:11
2.FF#	2.F#	2.A 2.d	2.ccnT	2.ccnT	4D	2.d	[2.dd	2.D	[2.d	2.D	2.A	2.a	2.dd	2.d	2.ccnT	2.ccnT	2.ccnT
.	.	.	.	.	4r	.	.	.	.	.	.	.	.	.	.	.	.
.	.	.	.	.	4r	.	.	.	.	.	.	.	.	.	.	.	.
.	.	.	32bQ	32bQ	.	.	.	.	.	.	.	.	.	.	32bQ	32bQ	32bQ
.	.	.	32ccQ	32ccQ	.	.	.	.	.	.	.	.	.	.	32ccQ	32ccQ	32ccQ
=46	=46	=46	=46	=46	=46	=46	=46	=46	=46	=46	=46	=46	=46	=46	=46	=46	=46
4GG	4G	4B 4d	4b	4b	4D	4d	4dd]	4D	4d]	4G	4B	4b	4dd	4b	4b	4b	4b
4r	4r	4r	4r	4r	4r	4ryy	4r	4ryy	4r	4ryy	4r	4ryy	4r	4ryy	4r	4r	4r
4r	4r	4r	4bb	4ddd	4r	4ryy	4r	4ryy	4r	4ryy	4r	4ryy	4r	4bb	4ddd	4ddd	4ddd
=47	=47	=47	=47	=47	=47	=47	=47	=47	=47	=47	=47	=47	=47	=47	=47	=47	=47
2.r	2.r	2.r	2.r	2.r	2.r	2.r	2.r	2.r	2.r	2.r	2.r	2.r	2.r	2.r	2.r	2.r	2.r
=48	=48	=48	=48	=48	=48	=48	=48	=48	=48	=48	=48	=48	=48	=48	=48	=48	=48
2.r	2.r	2.r	2.r	2.r	2.r	2.r	2.r	2.r	2.r	2.r	2.r	2.r	2.r	2.r	2.r	2.r	2.r
=49	=49	=49	=49	=49	=49	=49	=49	=49	=49	=49	=49	=49	=49	=49	=49	=49	=49
8AAA	8AA	8G	[2.c#	[2.e	2.r	2.r	2.r	2.r	2.r	[2.c#	[2.c#	2.r	2.r	2.ee	[2.gg	[2.ccc#	[2.ccc#
8AAA	8AA	8G	.	.	.	.	.	.	.	.	.	.	.	.	.	.	.
8AAA	8AA	8G	.	.	.	.	.	.	.	.	.	.	.	.	.	.	.
8AAA	8AA	8G	.	.	.	.	.	.	.	.	.	.	.	.	.	.	.
8AAA	8AA	8G	.	.	.	.	.	.	.	.	.	.	.	.	.	.	.
8AAA	8AA	8G	.	.	.	.	.	.	.	.	.	.	.	.	.	.	.
=50	=50	=50	=50	=50	=50	=50	=50	=50	=50	=50	=50	=50	=50	=50	=50	=50	=50
8AAA	8AA	8G	2.c#]	2.e]	2.r	2.r	2.r	2.r	2.r	2.c#]	2.c#]	2.r	2.r	2.ee	2.gg]	2.ccc#]	2.ccc#]
8AAA	8AA	8G	.	.	.	.	.	.	.	.	.	.	.	.	.	.	.
8AAA	8AA	8G	.	.	.	.	.	.	.	.	.	.	.	.	.	.	.
8AAA	8AA	8G	.	.	.	.	.	.	.	.	.	.	.	.	.	.	.
8AAA	8AA	8G	.	.	.	.	.	.	.	.	.	.	.	.	.	.	.
8AAA	8AA	8G	.	.	.	.	.	.	.	.	.	.	.	.	.	.	.
.	.	.	32BQ	32dQ	.	.	.	.	.	32BQ	32BQ	.	.	32ddQ	32ff#Q	32bbQ	32bbQ
.	.	.	32c#Q	32eQ	.	.	.	.	.	32c#Q	32c#Q	.	.	32eeQ	32ggQ	32ccc#Q	32ccc#Q
=51	=51	=51	=51	=51	=51	=51	=51	=51	=51	=51	=51	=51	=51	=51	=51	=51	=51
4DD	4D	4F#	4d	4d 4dd	4D	2f#	2dd	2F#	2d	4d	4d	4f#	4dd	4dd	4ff#	4ddd	4ddd
4r	4r	4r	4d	4d 4dd	4D	.	.	.	.	4r	4r	4f#	4dd	4ryy	4r	4r	4r
4AAA	4AA	4e 4cc#	8e	8ee	4AA	4a	4ee	4A	4e	4A	4A	8g	8ee	4ee	4gg	4ccc#	4ccc#
.	.	.	8f#	8ff#	.	.	.	.	.	.	.	8a	8ff#	.	.	.	.
=52	=52	=52	=52	=52	=52	=52	=52	=52	=52	=52	=52	=52	=52	=52	=52	=52	=52
4DD	4D	4f# 4dd	4d'	4dd'	4D	2dd	2ff#	2d	2f#	4d	4d	4f#	4dd	4ff#	4ff#	4ddd	4ddd
4r	4r	4r	4d'	4dd'	4D	.	.	.	.	4r	4r	4f#	4dd	4ryy	4r	4r	4r
4AAA	4AA	8a	8aa	8aa	4AA	4ff#	4aa	4f#	4a	4A	4A	4f#	4a	4aa	4aa	4ccc#	4ccc#
.	.	8f#	8ff#	8ff#	.	.	.	.	.	.	.	.	.	.	.	.	.
=53	=53	=53	=53	=53	=53	=53	=53	=53	=53	=53	=53	=53	=53	=53	=53	=53	=53
4DD	4D	4f# 4dd	4dd'	4dd'	4D	2dd	2ff#	2d	2f#	4d	4d	4f#	4dd	4ff#	4ff#	4ddd	4ddd
4r	4r	4r	4dd'	4dd'	4D	.	.	.	.	4r	4r	4f#	4dd	4ryy	4r	4r	4r
4AAA	4AA	4e 4cc#	8ee	4ccc#'	4AA	4a	4ee	4A	4e	4AA	4AA	8g	8ee	4ee	4gg	4ccc#'	4ccc#'
.	.	.	8ff#	.	.	.	.	.	.	.	.	8a	8ff#	.	.	.	.
=54	=54	=54	=54	=54	=54	=54	=54	=54	=54	=54	=54	=54	=54	=54	=54	=54	=54
4DD'	4D'	4d'y 4dd'	4dd'	4ddd'	4D	4f#	4dd	4F#	4d	4D	4D	4f#'y	4dd'	4dd'y	4ff#'	4ddd'	4ddd'
4r	4r	4r	4r	4r	4r	4ryy	4r	4ryy	4r	4r	4r	4ryy	4r	4ryy	4r	4r	4r
=55:|	=55:|	=55:|	=55:|	=55:|	=55:|	=55:|	=55:|	=55:|	=55:|	=55:|	=55:|	=55:|	=55:|	=55:|	=55:|	=55:|	=55:|
*>C	*>C	*>C	*>C	*>C	*>C	*>C	*>C	*>C	*>C	*>C	*>C	*>C	*>C	*>C	*>C	*>C	*>C
*staff:15	*staff:15	*staff:16	*staff:17	*staff:18	*	*	*	*	*	*staff:19	*staff:19	*	*	*	*staff:20	*	*
*k[b-e-]	*k[b-e-]	*k[b-e-]	*k[b-e-]	*k[b-e-]	*	*	*	*	*	*k[b-e-]	*k[b-e-]	*	*	*	*k[b-e-]	*	*
4r	4r	4r	4r	4dd	4ryy	4ryy	4ryy	4ryy	4ryy	4r	4r	4ryy	4ryy	4ryy	4dd	4ryy	4ryy
=56	=56	=56	=56	=56	=56	=56	=56	=56	=56	=56	=56	=56	=56	=56	=56	=56	=56
2.r	2.r	2.r	2.r	2ff	2.ryy	2.ryy	2.ryy	2.ryy	2.ryy	2.r	2.r	2.ryy	2.ryy	2.ryy	2ff	2.ryy	2.ryy
.	.	.	.	4dd	.	.	.	.	.	.	.	.	.	.	4dd	.	.
=57	=57	=57	=57	=57	=57	=57	=57	=57	=57	=57	=57	=57	=57	=57	=57	=57	=57
2.r	2.r	2.r	2.r	2ff	2.ryy	2.ryy	2.ryy	2.ryy	2.ryy	2.r	2.r	2.ryy	2.ryy	2.ryy	2ff	2.ryy	2.ryy
.	.	.	.	8dd	.	.	.	.	.	.	.	.	.	.	8dd	.	.
.	.	.	.	8ee-	.	.	.	.	.	.	.	.	.	.	8ee-	.	.
=58	=58	=58	=58	=58	=58	=58	=58	=58	=58	=58	=58	=58	=58	=58	=58	=58	=58
4BB-	4B-	4f	4B- 4d	8ff	2.ryy	2.ryy	2.ryy	2.ryy	2.ryy	2.r	2.r	2.ryy	2.ryy	2.ryy	8ff	2.ryy	2.ryy
.	.	.	.	8gg	.	.	.	.	.	.	.	.	.	.	8gg	.	.
4BB-	4B-	4f	4B- 4d	8aa	.	.	.	.	.	.	.	.	.	.	8aa	.	.
.	.	.	.	8bb-	.	.	.	.	.	.	.	.	.	.	8bb-	.	.
4BB-	4B-	4f	4B- 4d	8aa	.	.	.	.	.	.	.	.	.	.	8aa	.	.
.	.	.	.	8gg	.	.	.	.	.	.	.	.	.	.	8gg	.	.
=59	=59	=59	=59	=59	=59	=59	=59	=59	=59	=59	=59	=59	=59	=59	=59	=59	=59
4C	4c	4f	4A 4e-	8ff	2.ryy	2.ryy	2.ryy	2.ryy	2.ryy	2.r	2.r	2.ryy	2.ryy	2.ryy	8ff	2.ryy	2.ryy
.	.	.	.	8ee-	.	.	.	.	.	.	.	.	.	.	8ee-	.	.
4r	4r	4r	4r	8dd	.	.	.	.	.	.	.	.	.	.	8dd	.	.
.	.	.	.	8cc	.	.	.	.	.	.	.	.	.	.	8cc	.	.
4r	4r	4r	4r	8b-	.	.	.	.	.	.	.	.	.	.	8b-	.	.
.	.	.	.	8a	.	.	.	.	.	.	.	.	.	.	8a	.	.
=60	=60	=60	=60	=60	=60	=60	=60	=60	=60	=60	=60	=60	=60	=60	=60	=60	=60
4FF	4F	4c	4A 4e-	8g	2.ryy	2.ryy	2.ryy	2.ryy	2.ryy	2.r	2.r	2.ryy	2.ryy	2.ryy	8g	2.ryy	2.ryy
.	.	.	.	8f	.	.	.	.	.	.	.	.	.	.	8f	.	.
4FF	4F	4c	4A 4e-	8g	.	.	.	.	.	.	.	.	.	.	8g	.	.
.	.	.	.	8a	.	.	.	.	.	.	.	.	.	.	8a	.	.
4FF	4F	4c	4A 4e-	8b-	.	.	.	.	.	.	.	.	.	.	8b-	.	.
.	.	.	.	8cc	.	.	.	.	.	.	.	.	.	.	8cc	.	.
=61	=61	=61	=61	=61	=61	=61	=61	=61	=61	=61	=61	=61	=61	=61	=61	=61	=61
4BB-	4B-	4B-	4B- 4d	8dd	2.ryy	2.ryy	2.ryy	2.ryy	2.ryy	2.ryy	4r	2.ryy	2.ryy	2.ryy	8dd	2.ryy	2.ryy
.	.	.	.	8ee-	.	.	.	.	.	.	.	.	.	.	8ee-	.	.
4r	4r	4r	4r	8dd	.	.	.	.	.	.	4r	.	.	.	8dd	.	.
.	.	.	.	8cc	.	.	.	.	.	.	.	.	.	.	8cc	.	.
4FF	4F	4c	4A 4e-	8b-	.	.	.	.	.	.	8B-	.	.	.	8b-	.	.
.	.	.	.	8cc	.	.	.	.	.	.	8c	.	.	.	8r	.	.
=62	=62	=62	=62	=62	=62	=62	=62	=62	=62	=62	=62	=62	=62	=62	=62	=62	=62
*	*	*	*	*	*	*	*	*	*	*	*	*	*	*staff:20	*	*	*
*	*	*	*	*	*	*	*	*	*	*	*	*	*	*k[b-e-]	*	*	*
4BB-	4B-	4B-	4B- 4d	8dd	2.ryy	2.ryy	2.ryy	2.ryy	2.ryy	2.ryy	8d	2.ryy	2.ryy	2.r	2.r	2.ryy	2.ryy
.	.	.	.	8ee-	.	.	.	.	.	.	8e-	.	.	.	.	.	.
4r	4r	4r	4r	8dd	.	.	.	.	.	.	8d	.	.	.	.	.	.
.	.	.	.	8cc	.	.	.	.	.	.	8c	.	.	.	.	.	.
4FF	4F	4c	4A 4e-	8b-	.	.	.	.	.	.	8B-	.	.	.	.	.	.
.	.	.	.	8cc	.	.	.	.	.	.	8c	.	.	.	.	.	.
=63	=63	=63	=63	=63	=63	=63	=63	=63	=63	=63	=63	=63	=63	=63	=63	=63	=63
4BB-	4B-	4B-	4B- 4d	8dd	2.ryy	2.ryy	2.ryy	2.ryy	2.ryy	2.ryy	8d	2.ryy	2.ryy	2.r	2.r	2.ryy	2.ryy
.	.	.	.	8ee-	.	.	.	.	.	.	8e-	.	.	.	.	.	.
4r	4r	4r	4r	8dd	.	.	.	.	.	.	8d	.	.	.	.	.	.
.	.	.	.	8cc	.	.	.	.	.	.	8c	.	.	.	.	.	.
4FF	4F	4c	4A 4e-	8b-	.	.	.	.	.	.	8B-	.	.	.	.	.	.
.	.	.	.	8cc	.	.	.	.	.	.	8c	.	.	.	.	.	.
=64	=64	=64	=64	=64	=64	=64	=64	=64	=64	=64	=64	=64	=64	=64	=64	=64	=64
4BB-	4B-	4B-	4B- 4d	8dd	2.ryy	2.ryy	2.ryy	2.ryy	2.ryy	2.ryy	8d	2.ryy	2.ryy	2.r	2.r	2.ryy	2.ryy
.	.	.	.	8ee-	.	.	.	.	.	.	8e-	.	.	.	.	.	.
4r	4r	4r	4r	8dd	.	.	.	.	.	.	8d	.	.	.	.	.	.
.	.	.	.	8cc	.	.	.	.	.	.	8c	.	.	.	.	.	.
4FF#	4F#	4c	4d 4a	8b-	.	.	.	.	.	.	8B-	.	.	.	.	.	.
.	.	.	.	8a	.	.	.	.	.	.	8A	.	.	.	.	.	.
=65	=65	=65	=65	=65	=65	=65	=65	=65	=65	=65	=65	=65	=65	=65	=65	=65	=65
4GG	4G	4B-	4d 4b-	8b-	2.ryy	2.ryy	2.ryy	2.ryy	2.ryy	2.ryy	8B-	2.ryy	2.ryy	2.r	2.r	2.ryy	2.ryy
.	.	.	.	8cc	.	.	.	.	.	.	8c	.	.	.	.	.	.
4r	4r	4r	4r	8b-	.	.	.	.	.	.	8B-	.	.	.	.	.	.
.	.	.	.	8a	.	.	.	.	.	.	8A	.	.	.	.	.	.
4BBB-	4BB-	4B-	4G 4d	8g	.	.	.	.	.	.	8G	.	.	.	.	.	.
.	.	.	.	8f	.	.	.	.	.	.	8F	.	.	.	.	.	.
=66	=66	=66	=66	=66	=66	=66	=66	=66	=66	=66	=66	=66	=66	=66	=66	=66	=66
*staff:8	*staff:8	*staff:9	*staff:10	*staff:11	*	*	*	*	*	*	*staff:12	*	*	*staff:13	*staff:13	*staff:14	*staff:14
*	*	*	*	*	*	*	*	*	*	*	*	*	*	*	*	*k[b-e-]	*k[b-e-]
4CC	4C	4B-	4G 4en	8en	2.ryy	2.ryy	2.ryy	2.ryy	2.ryy	2.ryy	8En	2.ryy	2.ryy	2.r	2.r	2.r	2.r
.	.	.	.	8g	.	.	.	.	.	.	8G	.	.	.	.	.	.
4r	4r	4r	4r	8cc	.	.	.	.	.	.	8c	.	.	.	.	.	.
.	.	.	.	8b-	.	.	.	.	.	.	8B-	.	.	.	.	.	.
4CC	4C	4B-	4G 4e	8a	.	.	.	.	.	.	8A	.	.	.	.	.	.
.	.	.	.	8g	.	.	.	.	.	.	8G	.	.	.	.	.	.
=67	=67	=67	=67	=67	=67	=67	=67	=67	=67	=67	=67	=67	=67	=67	=67	=67	=67
4FF	4F	4A	4A 4f	4f	2ryy	2ryy	2ryy	2ryy	2ryy	2ryy	4F	2ryy	2ryy	4r	4r	4r	4r
4r	4r	4r	4r	4r	.	.	.	.	.	.	4r	.	.	4r	4r	4r	4r
=68:||:	=68:||:	=68:||:	=68:||:	=68:||:	=68:||:	=68:||:	=68:||:	=68:||:	=68:||:	=68:||:	=68:||:	=68:||:	=68:||:	=68:||:	=68:||:	=68:||:	=68:||:
*>D	*>D	*>D	*>D	*>D	*>D	*>D	*>D	*>D	*>D	*>D	*>D	*>D	*>D	*>D	*>D	*>D	*>D
4r	4r	4r	4r	8d	4ryy	4ryy	4ryy	4ryy	4ryy	4ryy	8d	4ryy	4ryy	4ryy	4ff	4r	4r
.	.	.	.	8e-X	.	.	.	.	.	.	8e-X	.	.	.	.	.	.
=69	=69	=69	=69	=69	=69	=69	=69	=69	=69	=69	=69	=69	=69	=69	=69	=69	=69
2.r	2.r	2.r	4r	8f	2.ryy	2.ryy	2.ryy	2.ryy	2.ryy	2.ryy	8f	2.ryy	2.ryy	2.ryy	2aa-	2.r	2.r
.	.	.	.	8e-	.	.	.	.	.	.	8e-	.	.	.	.	.	.
.	.	.	4r	8d	.	.	.	.	.	.	8d	.	.	.	.	.	.
.	.	.	.	8c	.	.	.	.	.	.	8c	.	.	.	.	.	.
.	.	.	4d	8Bn	.	.	.	.	.	.	8Bn	.	.	.	4ff	.	.
.	.	.	.	8A-	.	.	.	.	.	.	8A-	.	.	.	.	.	.
=70	=70	=70	=70	=70	=70	=70	=70	=70	=70	=70	=70	=70	=70	=70	=70	=70	=70
2.r	2.r	2.r	2f	8G	2.ryy	2.ryy	2.ryy	2.ryy	2.ryy	2.ryy	8G	2.ryy	2.ryy	4r	2aa-	2.ryy	4r
.	.	.	.	8Bn	.	.	.	.	.	.	8Bn	.	.	.	.	.	.
.	.	.	.	8d	.	.	.	.	.	.	8d	.	.	4g	.	.	4r
.	.	.	.	8f	.	.	.	.	.	.	8f	.	.	.	.	.	.
.	.	.	4Bn	8e-	.	.	.	.	.	.	8e-	.	.	32ryy	4ff	.	4gg
.	.	.	.	.	.	.	.	.	.	.	.	.	.	32ryy	.	.	.
.	.	.	.	.	.	.	.	.	.	.	.	.	.	32ryy	.	.	.
.	.	.	.	.	.	.	.	.	.	.	.	.	.	32ryy	.	.	.
.	.	.	.	8d	.	.	.	.	.	.	8d	.	.	32ryy	.	.	.
.	.	.	.	.	.	.	.	.	.	.	.	.	.	32ryy	.	.	.
.	.	.	.	.	.	.	.	.	.	.	.	.	.	32ryy	.	.	.
.	.	.	.	.	.	.	.	.	.	.	.	.	.	32ryy	.	.	.
!!WARNING: This measure contained too few data records
=71	=71	=71	=71	=71	=71	=71	=71	=71	=71	=71	=71	=71	=71	=71	=71	=71	=71
2.r	2.r	2.r	4c	8c	2.ryy	2.ryy	2.ryy	2.ryy	2.ryy	2.ryy	4c	2.ryy	2.ryy	8c	4ee-	2.ryy	2eee-
.	.	.	.	8e-	.	.	.	.	.	.	.	.	.	8e-	.	.	.
.	.	.	4r	8g	.	.	.	.	.	.	4r	.	.	8g	4r	.	.
.	.	.	.	8cc	.	.	.	.	.	.	.	.	.	8cc	.	.	.
.	.	.	4r	8ee-	.	.	.	.	.	.	4r	.	.	8ee-	4r	.	4ccc
.	.	.	.	8dd	.	.	.	.	.	.	.	.	.	8dd	.	.	.
=72	=72	=72	=72	=72	=72	=72	=72	=72	=72	=72	=72	=72	=72	=72	=72	=72	=72
*	*	*	*	*	*	*	*	*	*	*staff:12	*	*	*	*	*	*	*
2.r	2.r	2.r	2.r	8cc	2.ryy	2.ryy	2.ryy	2.ryy	2.ryy	2.r	2.r	2.ryy	2.ryy	8cc	2.ryy	2.ryy	2eee-
.	.	.	.	8dd	.	.	.	.	.	.	.	.	.	8dd	.	.	.
.	.	.	.	8cc	.	.	.	.	.	.	.	.	.	8cc	.	.	.
.	.	.	.	8b-	.	.	.	.	.	.	.	.	.	8b-	.	.	.
.	.	.	.	8a	.	.	.	.	.	.	.	.	.	8a	.	.	4ccc
.	.	.	.	8g	.	.	.	.	.	.	.	.	.	8g	.	.	.
=73	=73	=73	=73	=73	=73	=73	=73	=73	=73	=73	=73	=73	=73	=73	=73	=73	=73
2.r	2.r	2.r	2.r	8f#	2.ryy	2.ryy	2.ryy	2.ryy	2.ryy	2.r	2.r	2.ryy	2.ryy	8f#	2.ryy	2.ryy	2ddd
.	.	.	.	8g	.	.	.	.	.	.	.	.	.	8g	.	.	.
.	.	.	.	8a	.	.	.	.	.	.	.	.	.	8a	.	.	.
.	.	.	.	8d	.	.	.	.	.	.	.	.	.	8d	.	.	.
.	.	.	.	8en	.	.	.	.	.	.	.	.	.	8en	.	.	4ccc
.	.	.	.	8f#	.	.	.	.	.	.	.	.	.	8f#	.	.	.
=74	=74	=74	=74	=74	=74	=74	=74	=74	=74	=74	=74	=74	=74	=74	=74	=74	=74
2.r	2.r	2.r	2.r	8g	2.ryy	2.ryy	2.ryy	2.ryy	2.ryy	2.r	2.r	2.ryy	2.ryy	8g	2.ryy	2.ryy	2bb-
.	.	.	.	8a	.	.	.	.	.	.	.	.	.	8a	.	.	.
.	.	.	.	8b-	.	.	.	.	.	.	.	.	.	8b-	.	.	.
.	.	.	.	8cc	.	.	.	.	.	.	.	.	.	8cc	.	.	.
.	.	.	.	8dd	.	.	.	.	.	.	.	.	.	8dd	.	.	4gg
.	.	.	.	8ee-	.	.	.	.	.	.	.	.	.	8ee-	.	.	.
=75	=75	=75	=75	=75	=75	=75	=75	=75	=75	=75	=75	=75	=75	=75	=75	=75	=75
4r	4r	4r	4r	8cc	2.ryy	2.ryy	2.ryy	2.ryy	2.ryy	2.ryy	4r	2.ryy	2.ryy	8cc	2.ryy	2.ryy	2eee-
.	.	.	.	8b-	.	.	.	.	.	.	.	.	.	8b-	.	.	.
4r	4r	4r	4r	8cc	.	.	.	.	.	.	4r	.	.	8cc'	.	.	.
.	.	.	.	8a	.	.	.	.	.	.	.	.	.	8a'	.	.	.
4DD	4D	4d	4cc	8dd	.	.	.	.	.	.	4d	.	.	8cc'	.	.	4ff#
.	.	.	.	8d	.	.	.	.	.	.	.	.	.	8dd'	.	.	.
=76	=76	=76	=76	=76	=76	=76	=76	=76	=76	=76	=76	=76	=76	=76	=76	=76	=76
*staff:1	*staff:1	*staff:2	*staff:3	*staff:4	*	*	*	*	*	*	*staff:5	*	*	*staff:6	*staff:6	*	*staff:7
[2.GGG	[2.GG	8d	8bn	4g	2.ryy	2.ryy	2.ryy	2.ryy	2.ryy	2.ryy	2f	2.ryy	2.ryy	2gg	[2.bn	2.ryy	4gg
.	.	8e-	8cc	.	.	.	.	.	.	.	.	.	.	.	.	.	.
.	.	8f	8dd	4r	.	.	.	.	.	.	.	.	.	.	.	.	4r
.	.	8g	8ee-X	.	.	.	.	.	.	.	.	.	.	.	.	.	.
.	.	8a-	8ff	4ffn	.	.	.	.	.	.	4d	.	.	4r	.	.	4r
.	.	8f	8dd	.	.	.	.	.	.	.	.	.	.	.	.	.	.
=77	=77	=77	=77	=77	=77	=77	=77	=77	=77	=77	=77	=77	=77	=77	=77	=77	=77
*	*	*	*	*	*	*	*	*	*	*	*	*	*	*	*	*staff:7	*
2.GGG_	2.GG_	8d	8bn	2aa-	2.ryy	2.ryy	2.ryy	2.ryy	2.ryy	2.ryy	2f	2.ryy	2.ryy	2.r	2.b_	2.r	2.r
.	.	8e-	8cc	.	.	.	.	.	.	.	.	.	.	.	.	.	.
.	.	8f	8dd	.	.	.	.	.	.	.	.	.	.	.	.	.	.
.	.	8g	8ee-	.	.	.	.	.	.	.	.	.	.	.	.	.	.
.	.	8a-	8ff	4ff	.	.	.	.	.	.	4d	.	.	.	.	.	.
.	.	8f	8dd	.	.	.	.	.	.	.	.	.	.	.	.	.	.
=78	=78	=78	=78	=78	=78	=78	=78	=78	=78	=78	=78	=78	=78	=78	=78	=78	=78
2GGG]	2GG]	8d	8bn	2aa-	2.ryy	2.ryy	2.ryy	2.ryy	2.ryy	2.ryy	2f	2.ryy	2.ryy	2.r	2b]	2.r	2.r
.	.	8e-	8cc	.	.	.	.	.	.	.	.	.	.	.	.	.	.
.	.	8f	8dd	.	.	.	.	.	.	.	.	.	.	.	.	.	.
.	.	8g	8ee-	.	.	.	.	.	.	.	.	.	.	.	.	.	.
4BB	4Bn	8a-	8ff	8gg	.	.	.	.	.	.	4Bn	.	.	.	4dd	.	.
.	.	8Bn	8dd	8ff	.	.	.	.	.	.	.	.	.	.	.	.	.
=79	=79	=79	=79	=79	=79	=79	=79	=79	=79	=79	=79	=79	=79	=79	=79	=79	=79
4C	4c	4c	4ee-	8ee-X	2.ryy	2.ryy	2.ryy	2.ryy	2.ryy	2.ryy	8c	2.ryy	2.ryy	2.r	4ee-	2.r	2.r
.	.	.	.	8dd	.	.	.	.	.	.	8d	.	.	.	.	.	.
4E-	4e-	4r	4r	8cc	.	.	.	.	.	.	8e-	.	.	.	4r	.	.
.	.	.	.	8gg	.	.	.	.	.	.	8g	.	.	.	.	.	.
4AA	4A	4r	4c	8ff	.	.	.	.	.	.	8f	.	.	.	4r	.	.
.	.	.	.	8ee-	.	.	.	.	.	.	8e-	.	.	.	.	.	.
=80	=80	=80	=80	=80	=80	=80	=80	=80	=80	=80	=80	=80	=80	=80	=80	=80	=80
4BB-	4B-	2.r	4d	8dd	2.ryy	2.ryy	2.ryy	2.ryy	2.ryy	2.ryy	8d	2.ryy	2.ryy	2.r	2.r	2.r	2.r
.	.	.	.	8cc	.	.	.	.	.	.	8c	.	.	.	.	.	.
4D	4d	.	4f	8b-	.	.	.	.	.	.	8B-	.	.	.	.	.	.
.	.	.	.	8ff	.	.	.	.	.	.	8f	.	.	.	.	.	.
4DD	4D	.	4B-	8ee-	.	.	.	.	.	.	8e-	.	.	.	.	.	.
.	.	.	.	8dd	.	.	.	.	.	.	8d	.	.	.	.	.	.
=81	=81	=81	=81	=81	=81	=81	=81	=81	=81	=81	=81	=81	=81	=81	=81	=81	=81
2EE-	2E-	2.r	2G	8cc	2.ryy	2.ryy	2.ryy	2.ryy	2.ryy	2.ryy	8c	2.ryy	2.ryy	2.r	2.r	2.r	2.r
.	.	.	.	8dd	.	.	.	.	.	.	8d	.	.	.	.	.	.
.	.	.	.	8cc	.	.	.	.	.	.	8c	.	.	.	.	.	.
.	.	.	.	8b-	.	.	.	.	.	.	8B-	.	.	.	.	.	.
4EE	4En	.	4B-	8a	.	.	.	.	.	.	8A	.	.	.	.	.	.
.	.	.	.	8g	.	.	.	.	.	.	8G	.	.	.	.	.	.
=82	=82	=82	=82	=82	=82	=82	=82	=82	=82	=82	=82	=82	=82	=82	=82	=82	=82
4FF	4F	2.r	4A	8f	2.ryy	2.ryy	2.ryy	2.ryy	2.ryy	2.ryy	8F	2.ryy	2.ryy	4ryy	4r	2.r	2.r
.	.	.	.	8a	.	.	.	.	.	.	8A	.	.	.	.	.	.
4r	4r	.	4r	8b-	.	.	.	.	.	.	8B-	.	.	4ryy	4r	.	.
.	.	.	.	8cc	.	.	.	.	.	.	8c	.	.	.	.	.	.
4r	4r	.	4r	8dd	.	.	.	.	.	.	8d	.	.	4b-	4dd	.	.
.	.	.	.	8ee-	.	.	.	.	.	.	8e-	.	.	.	.	.	.
=83	=83	=83	=83	=83	=83	=83	=83	=83	=83	=83	=83	=83	=83	=83	=83	=83	=83
*	*	*	*	*	*	*	*	*	*	*staff:5	*	*	*	*	*	*	*
2.r	2.r	2.r	2.r	2ff	2.ryy	2.ryy	2.ryy	2.ryy	2.ryy	2d	2f	2.ryy	2.ryy	2dd	2ff	2.r	2.r
.	.	.	.	4dd	.	.	.	.	.	4B-	4d	.	.	4b-	4dd	.	.
=84	=84	=84	=84	=84	=84	=84	=84	=84	=84	=84	=84	=84	=84	=84	=84	=84	=84
2.r	2.r	2.r	2.r	2ff	2.ryy	2.ryy	2.ryy	2.ryy	2.ryy	2d	2f	2.ryy	2.ryy	2dd	2ff	2.r	2.r
.	.	.	.	8dd	.	.	.	.	.	8B-	8d	.	.	8b-	8dd	.	.
.	.	.	.	8ee-	.	.	.	.	.	8c	8e-	.	.	8cc	8ee-	.	.
=85	=85	=85	=85	=85	=85	=85	=85	=85	=85	=85	=85	=85	=85	=85	=85	=85	=85
4BBB-	4BB-	4f	4B- 4d	8ff	2.ryy	2.ryy	2.ryy	2.ryy	2.ryy	4d	4f	2.ryy	2.ryy	4dd	8ff	2.r	2.r
.	.	.	.	8gg	.	.	.	.	.	.	.	.	.	.	8gg	.	.
4BBB-	4BB-	4f	4B- 4d	8aa	.	.	.	.	.	4B-	4d	.	.	4r	8aa	.	.
.	.	.	.	8bb-	.	.	.	.	.	.	.	.	.	.	8bb-	.	.
4BBB-	4BB-	4f	4B- 4d	8aa	.	.	.	.	.	4B-	4d	.	.	4r	8aa	.	.
.	.	.	.	8gg	.	.	.	.	.	.	.	.	.	.	8gg	.	.
=86	=86	=86	=86	=86	=86	=86	=86	=86	=86	=86	=86	=86	=86	=86	=86	=86	=86
*staff:8	*staff:8	*staff:9	*staff:10	*staff:11	*	*	*	*	*	*staff:12	*staff:12	*	*	*staff:13	*staff:13	*staff:14	*staff:14
4CC	4C	4f	4A 4e-	8ff	2.ryy	2.ryy	2.ryy	2.ryy	2.ryy	4c	4e-	2.ryy	2.ryy	2.r	8ff	2.r	2.r
.	.	.	.	8ee-	.	.	.	.	.	.	.	.	.	.	8ee-	.	.
4r	4r	4r	4r	8dd	.	.	.	.	.	4ryy	4r	.	.	.	8dd	.	.
.	.	.	.	8cc	.	.	.	.	.	.	.	.	.	.	8cc	.	.
4r	4r	4r	4r	8b-	.	.	.	.	.	4ryy	4r	.	.	.	8b-	.	.
.	.	.	.	8a	.	.	.	.	.	.	.	.	.	.	8a	.	.
=87	=87	=87	=87	=87	=87	=87	=87	=87	=87	=87	=87	=87	=87	=87	=87	=87	=87
4FF	4F	4c	4A 4e-	8g	2.ryy	2.ryy	2.ryy	2.ryy	2.ryy	4F	4c	2.ryy	2.ryy	2.ryy	8g	2.r	2.r
.	.	.	.	8f	.	.	.	.	.	.	.	.	.	.	8f	.	.
4FF	4F	4c	4A 4e-	8g	.	.	.	.	.	4F	4c	.	.	.	8g	.	.
.	.	.	.	8a	.	.	.	.	.	.	.	.	.	.	8a	.	.
4FF	4F	4c	4A 4e-	8b-	.	.	.	.	.	4F	4c	.	.	.	8b-	.	.
.	.	.	.	8cc	.	.	.	.	.	.	.	.	.	.	8cc	.	.
=88	=88	=88	=88	=88	=88	=88	=88	=88	=88	=88	=88	=88	=88	=88	=88	=88	=88
4BBB-	4BB-	4B-	4B- 4d	8dd	2.ryy	2.ryy	2.ryy	2.ryy	2.ryy	4B-	4d	2.ryy	2.ryy	2.ryy	8dd	2.ryy	2.bb-
.	.	.	.	8ee-	.	.	.	.	.	.	.	.	.	.	8ee-	.	.
4r	4r	4r	4r	8dd	.	.	.	.	.	4ryy	4r	.	.	.	8dd	.	.
.	.	.	.	8cc	.	.	.	.	.	.	.	.	.	.	8cc	.	.
4r	4r	4r	4r	8b-	.	.	.	.	.	4ryy	4r	.	.	.	8b-	.	.
.	.	.	.	8dd	.	.	.	.	.	.	.	.	.	.	8dd	.	.
=89	=89	=89	=89	=89	=89	=89	=89	=89	=89	=89	=89	=89	=89	=89	=89	=89	=89
4BBB-	4BB-	4B-	4c 4e-	8ee-	2.ryy	2.ryy	2.ryy	2.ryy	2.ryy	2.r	2.r	2.ryy	2.ryy	2.ryy	8ee-	2.ryy	2.aa
.	.	.	.	8ff	.	.	.	.	.	.	.	.	.	.	8ff	.	.
4r	4r	4r	4r	8ee-	.	.	.	.	.	.	.	.	.	.	8ee-	.	.
.	.	.	.	8dd	.	.	.	.	.	.	.	.	.	.	8dd	.	.
4r	4r	4r	4r	8cc	.	.	.	.	.	.	.	.	.	.	8cc	.	.
.	.	.	.	8ee-	.	.	.	.	.	.	.	.	.	.	8ee-	.	.
=90	=90	=90	=90	=90	=90	=90	=90	=90	=90	=90	=90	=90	=90	=90	=90	=90	=90
4BBB-	4BB-	4B-	4d 4f	8ff	2.ryy	2.ryy	2.ryy	2.ryy	2.ryy	2.r	2.r	2.ryy	2.ryy	2.ryy	8ff	2.ryy	2.aa-
.	.	.	.	8gg	.	.	.	.	.	.	.	.	.	.	8gg	.	.
4r	4r	4r	4r	8ff	.	.	.	.	.	.	.	.	.	.	8ff	.	.
.	.	.	.	8ee-	.	.	.	.	.	.	.	.	.	.	8ee-	.	.
4r	4r	4r	4r	8dd	.	.	.	.	.	.	.	.	.	.	8dd	.	.
.	.	.	.	8ff	.	.	.	.	.	.	.	.	.	.	8ff	.	.
=91	=91	=91	=91	=91	=91	=91	=91	=91	=91	=91	=91	=91	=91	=91	=91	=91	=91
4EE-	4E-	4e-	4B- 4g	4gg	2.ryy	2.ryy	2.ryy	2.ryy	2.ryy	2.r	2.r	2.ryy	2.ryy	2.ryy	4gg	2.ryy	4gg
4r	4r	4r	4r	4r	.	.	.	.	.	.	.	.	.	.	4r	.	4r
4r	4r	4r	4r	4r	.	.	.	.	.	.	.	.	.	.	4r	.	4r
=92	=92	=92	=92	=92	=92	=92	=92	=92	=92	=92	=92	=92	=92	=92	=92	=92	=92
2.r	2.r	2.r	4r	4r	2.ryy	2.ryy	2.ryy	2.ryy	2.ryy	2.r	2.r	2.ryy	2.ryy	2.ryy	4r	2.r	2.r
.	.	.	4r	4r	.	.	.	.	.	.	.	.	.	.	4r	.	.
.	.	.	4f#	4ff#	.	.	.	.	.	.	.	.	.	.	4ff#	.	.
=93	=93	=93	=93	=93	=93	=93	=93	=93	=93	=93	=93	=93	=93	=93	=93	=93	=93
2.r	2.r	2.r	2a	2aa	2.ryy	2.ryy	2.ryy	2.ryy	2.ryy	2.r	2.r	2.ryy	2.ryy	2.ryy	2aa	2.r	2.r
.	.	.	4g	4gg	.	.	.	.	.	.	.	.	.	.	4gg	.	.
=94	=94	=94	=94	=94	=94	=94	=94	=94	=94	=94	=94	=94	=94	=94	=94	=94	=94
2.r	2.r	4r	2b-	2bb-	2.ryy	2.ryy	2.ryy	2.ryy	2.ryy	2.r	2.r	2.ryy	2.ryy	2.ryy	2bb-	2.r	2.r
.	.	4r	.	.	.	.	.	.	.	.	.	.	.	.	.	.	.
.	.	4G	4G	4gg	.	.	.	.	.	.	.	.	.	.	4gg	.	.
=95	=95	=95	=95	=95	=95	=95	=95	=95	=95	=95	=95	=95	=95	=95	=95	=95	=95
[2.EE-	[2.E-	2.Bn	2.Bn	4ee-	2.ryy	2.ryy	2.ryy	2.ryy	2.ryy	2.r	2.r	2.ryy	2.ryy	2.ryy	4ee-	2.r	2.r
.	.	.	.	4ff	.	.	.	.	.	.	.	.	.	.	4ff	.	.
.	.	.	.	4dd	.	.	.	.	.	.	.	.	.	.	4dd	.	.
=96	=96	=96	=96	=96	=96	=96	=96	=96	=96	=96	=96	=96	=96	=96	=96	=96	=96
2EE-]	2E-]	2.c	2.c	4ee-	2.ryy	2.ryy	2.ryy	2.ryy	2.ryy	2.r	2.r	2.ryy	2.ryy	2.ryy	4ee-	2.r	2.r
.	.	.	.	4cc	.	.	.	.	.	.	.	.	.	.	4cc	.	.
4EE	4En	.	.	4gg	.	.	.	.	.	.	.	.	.	.	4gg	.	.
=97	=97	=97	=97	=97	=97	=97	=97	=97	=97	=97	=97	=97	=97	=97	=97	=97	=97
*staff:1	*staff:1	*staff:2	*staff:3	*staff:4	*	*	*	*	*	*staff:5	*staff:5	*	*	*	*staff:6	*staff:7	*staff:7
2.FF	2.F	2d	2d	8b-	2.ryy	2.ryy	2.ryy	2.ryy	2.ryy	2.r	2.r	2.ryy	2.ryy	2.ryy	8b-	2.r	2.r
.	.	.	.	8cc	.	.	.	.	.	.	.	.	.	.	8cc	.	.
.	.	.	.	8dd	.	.	.	.	.	.	.	.	.	.	8dd	.	.
.	.	.	.	8ee-	.	.	.	.	.	.	.	.	.	.	8ee-	.	.
.	.	8A	4e-	8cc	.	.	.	.	.	.	.	.	.	.	8cc	.	.
.	.	8c	.	8a	.	.	.	.	.	.	.	.	.	.	8a	.	.
=98	=98	=98	=98	=98	=98	=98	=98	=98	=98	=98	=98	=98	=98	=98	=98	=98	=98
4BBB-	4BB-	4B-	4d	4b-	2ryy	2ryy	2ryy	2ryy	2ryy	4r	4r	2ryy	2ryy	2ryy	4b-	4r	4r
4r	4r	4r	4r	4r	.	.	.	.	.	4r	4r	.	.	.	4r	4r	4r
=99:|	=99:|	=99:|	=99:|	=99:|	=99:|	=99:|	=99:|	=99:|	=99:|	=99:|	=99:|	=99:|	=99:|	=99:|	=99:|	=99:|	=99:|
*>E	*>E	*>E	*>E	*>E	*>E	*>E	*>E	*>E	*>E	*>E	*>E	*>E	*>E	*>E	*>E	*>E	*>E
*	*	*	*	*	*	*	*	*	*	*	*	*	*	*staff:6	*	*	*
4r	4r	4r	4r	4dd	4ryy	4ryy	4ryy	4ryy	4ryy	4r	4r	4ryy	4ryy	4b-	4dd	4r	4r
=100	=100	=100	=100	=100	=100	=100	=100	=100	=100	=100	=100	=100	=100	=100	=100	=100	=100
2.r	2.r	2.r	4b-	2ff	2.ryy	2.ryy	2.ryy	2.ryy	2.ryy	2.r	2.r	2.ryy	2.ryy	2dd	2ff	2.r	2.r
.	.	.	4b-	.	.	.	.	.	.	.	.	.	.	.	.	.	.
.	.	.	4b-	4dd	.	.	.	.	.	.	.	.	.	4b-	4dd	.	.
=101	=101	=101	=101	=101	=101	=101	=101	=101	=101	=101	=101	=101	=101	=101	=101	=101	=101
2.r	2.r	2.r	4b-	2ff	2.ryy	2.ryy	2.ryy	2.ryy	2.ryy	2.r	2.r	2.ryy	2.ryy	2dd	2ff	2.r	2.r
.	.	.	4b-	.	.	.	.	.	.	.	.	.	.	.	.	.	.
.	.	.	4b-	4dd	.	.	.	.	.	.	.	.	.	4b-	4dd	.	.
=102	=102	=102	=102	=102	=102	=102	=102	=102	=102	=102	=102	=102	=102	=102	=102	=102	=102
2.r	2.r	4b-	[2.dd	2ff#	2.ryy	2.ryy	2.ryy	2.ryy	2.ryy	2.r	2.r	2.ryy	2.ryy	4dd	2.ff#	2.ryy	[2.ddd
.	.	4b-	.	.	.	.	.	.	.	.	.	.	.	4b-	.	.	.
.	.	4b-	.	4dd	.	.	.	.	.	.	.	.	.	4b-	.	.	.
=103	=103	=103	=103	=103	=103	=103	=103	=103	=103	=103	=103	=103	=103	=103	=103	=103	=103
2.r	2.r	4b-	2.dd_	2gg	2.ryy	2.ryy	2.ryy	2.ryy	2.ryy	2.r	2.r	2.ryy	2.ryy	4b-	2.gg	2.ryy	2.ddd_
.	.	4b-	.	.	.	.	.	.	.	.	.	.	.	4b-	.	.	.
.	.	4b-	.	4dd	.	.	.	.	.	.	.	.	.	4b-	.	.	.
=104	=104	=104	=104	=104	=104	=104	=104	=104	=104	=104	=104	=104	=104	=104	=104	=104	=104
2.r	2.r	4b-	2.dd]	2gg#	2.ryy	2.ryy	2.ryy	2.ryy	2.ryy	4B-	4B-	2.ryy	2.ryy	2ff	2.gg#	2.ryy	2.ddd]
.	.	4b-	.	.	.	.	.	.	.	4B-	4B-	.	.	.	.	.	.
.	.	4b-	.	4dd	.	.	.	.	.	4B-	4B-	.	.	4dd	.	.	.
=105	=105	=105	=105	=105	=105	=105	=105	=105	=105	=105	=105	=105	=105	=105	=105	=105	=105
2.r	2.r	4a	2.cc#	2.aa	2.ryy	2.ryy	2.ryy	2.ryy	2.ryy	[2.A	[2.A	2.ryy	2.ryy	2.een	2.aa	2.ryy	4ccc#
.	.	4a	.	.	.	.	.	.	.	.	.	.	.	.	.	.	4eeen
.	.	4a	.	.	.	.	.	.	.	.	.	.	.	.	.	.	4aa
=106	=106	=106	=106	=106	=106	=106	=106	=106	=106	=106	=106	=106	=106	=106	=106	=106	=106
2.r	2.r	4a	4dd	2.gg#	2.ryy	2.ryy	2.ryy	2.ryy	2.ryy	2.A_	2.A_	2.ryy	2.ryy	2ff	2.gg#	2.ryy	2.ddd
.	.	4a	4ff	.	.	.	.	.	.	.	.	.	.	.	.	.	.
.	.	4a	4dd	.	.	.	.	.	.	.	.	.	.	4dd	.	.	.
=107	=107	=107	=107	=107	=107	=107	=107	=107	=107	=107	=107	=107	=107	=107	=107	=107	=107
2.r	2.r	4a	2.cc#	2.aa	2.ryy	2.ryy	2.ryy	2.ryy	2.ryy	2.A_	2.A_	2.ryy	2.ryy	2.een	2.aa	2.ryy	4ccc#
.	.	4a	.	.	.	.	.	.	.	.	.	.	.	.	.	.	4eeen
.	.	4a	.	.	.	.	.	.	.	.	.	.	.	.	.	.	4aa
=108	=108	=108	=108	=108	=108	=108	=108	=108	=108	=108	=108	=108	=108	=108	=108	=108	=108
2.r	2.r	4a	4dd	2.gg#	2.ryy	2.ryy	2.ryy	2.ryy	2.ryy	2.A_	2.A_	2.ryy	2.ryy	2ff	2.gg#	2.ryy	2.ddd
.	.	4a	4ff	.	.	.	.	.	.	.	.	.	.	.	.	.	.
.	.	4a	4dd	.	.	.	.	.	.	.	.	.	.	4dd	.	.	.
=109	=109	=109	=109	=109	=109	=109	=109	=109	=109	=109	=109	=109	=109	=109	=109	=109	=109
4r	4r	2a;	2cc#;	2aa;	2ryy	2ryy	2ryy	2ryy	2ryy	2A;]	2A;]	2ryy	2ryy	2een;y	2aa;	2ryy	2ccc#;
4r	4r	.	.	.	.	.	.	.	.	.	.	.	.	.	.	.	.
==110||	==110||	==110||	==110||	==110||	==110||	==110||	==110||	==110||	==110||	==110||	==110||	==110||	==110||	==110||	==110||	==110||	==110||
*-	*-	*-	*-	*-	*-	*-	*-	*-	*-	*-	*-	*-	*-	*-	*-	*-	*-
